app/assets/images/questions/dependents_home.svg

<svg width="100" height="75" viewBox="0 0 100 75" fill="none" xmlns="http://www.w3.org/2000/svg">
  <path fill-rule="evenodd" clip-rule="evenodd" d="M50.0511 2.0075C56.2782 2.12712 61.9336 4.72517 67.5026 7.49109C73.6785 10.5584 81.4731 12.6625 84.1872 18.9616C86.9 25.2576 82.0384 32.0673 81.0088 38.8375C79.9884 45.5473 81.6781 52.7601 78.1623 58.5813C74.3806 64.8427 68.3388 70.4059 61.1115 71.7817C54.0196 73.1317 47.6741 67.867 40.7929 65.6948C34.1036 63.5832 26.1256 64.1812 21.2292 59.1922C16.2732 54.1424 14.8944 46.4664 15.0062 39.4203C15.1089 32.9485 18.8063 27.377 21.825 21.6385C24.6851 16.2016 27.0973 10.333 32.1597 6.81216C37.323 3.22116 43.746 1.88638 50.0511 2.0075Z" fill="#C2C2FF"/>
  <path d="M77.8457 32.3599V63.0968H58.4537H51.2486H48.49H42.9456H23.5626V31.0972L50.7042 3L77.8457 32.3599Z" fill="white"/>
  <path d="M18 36.8556L50.7042 3M50.7042 3L82.0018 36.8556M50.7042 3L23.5626 31.0972V63.0968H42.9456H48.49H51.2486H58.4537H77.8457V32.3599L50.7042 3Z" stroke="black" stroke-width="3" stroke-miterlimit="10" stroke-linecap="round" stroke-linejoin="round"/>
  <path d="M56.7482 36.8555H43.2637V63.1055H56.7482V36.8555Z" fill="#FFD29C" stroke="black" stroke-width="3" stroke-miterlimit="10" stroke-linecap="round" stroke-linejoin="round"/>
  <path fill-rule="evenodd" clip-rule="evenodd" d="M69.3072 6.83789H62.9551V16.2481L69.3072 23.1143V6.83789Z" fill="white" stroke="black" stroke-width="3" stroke-miterlimit="10" stroke-linecap="round" stroke-linejoin="round"/>
  <path d="M42.4575 53.3901C38.3419 53.3901 35 56.7433 35 60.8901V72H49.9072V60.8901C49.9149 56.7511 46.5807 53.3901 42.4575 53.3901Z" fill="white"/>
  <path d="M42.4575 53.3901C45.5849 53.3901 48.1202 50.8403 48.1202 47.695C48.1202 44.5497 45.5849 42 42.4575 42C39.33 42 36.7948 44.5497 36.7948 47.695C36.7948 50.8403 39.33 53.3901 42.4575 53.3901Z" fill="white"/>
  <path d="M42.4575 53.3901C38.3419 53.3901 35 56.7433 35 60.8901V72H49.9072V60.8901C49.9149 56.7511 46.5807 53.3901 42.4575 53.3901ZM42.4575 53.3901C45.5849 53.3901 48.1202 50.8403 48.1202 47.695C48.1202 44.5497 45.5849 42 42.4575 42C39.33 42 36.7948 44.5497 36.7948 47.695C36.7948 50.8403 39.33 53.3901 42.4575 53.3901Z" stroke="black" stroke-width="3" stroke-miterlimit="10" stroke-linecap="round" stroke-linejoin="round"/>
  <path d="M57.5512 53.39C53.4357 53.39 50.0938 56.7433 50.0938 60.89V72H65.0009V60.89C65.0087 56.751 61.6667 53.39 57.5512 53.39Z" fill="white"/>
  <path d="M57.5512 53.39C60.6786 53.39 63.214 50.8403 63.214 47.695C63.214 44.5497 60.6786 42 57.5512 42C54.4238 42 51.8885 44.5497 51.8885 47.695C51.8885 50.8403 54.4238 53.39 57.5512 53.39Z" fill="white"/>
  <path d="M57.5512 53.39C53.4357 53.39 50.0938 56.7433 50.0938 60.89V72H65.0009V60.89C65.0087 56.751 61.6667 53.39 57.5512 53.39ZM57.5512 53.39C60.6786 53.39 63.214 50.8403 63.214 47.695C63.214 44.5497 60.6786 42 57.5512 42C54.4238 42 51.8885 44.5497 51.8885 47.695C51.8885 50.8403 54.4238 53.39 57.5512 53.39Z" stroke="black" stroke-width="3" stroke-miterlimit="10" stroke-linecap="round" stroke-linejoin="round"/>
</svg>

<svg width="100" height="75" fill="none" xmlns="http://www.w3.org/2000/svg"><path fill-rule="evenodd" clip-rule="evenodd" d="M50.051 2.007c6.227.12 11.883 2.718 17.452 5.484 6.175 3.067 13.97 5.171 16.684 11.47 2.713 6.297-2.149 13.106-3.178 19.877-1.02 6.71.67 13.922-2.847 19.743-3.781 6.262-9.823 11.825-17.05 13.2-7.092 1.35-13.438-3.914-20.32-6.086-6.688-2.112-14.666-1.514-19.563-6.503-4.956-5.05-6.335-12.726-6.223-19.772.103-6.471 3.8-12.043 6.819-17.782 2.86-5.436 5.272-11.305 10.335-14.826 5.163-3.59 11.586-4.926 17.891-4.804Z" fill="#C2C2FF"/><path d="M77.846 32.36v30.737H23.563v-32L50.704 3l27.142 29.36Z" fill="#fff"/><path d="M18 36.856 50.704 3m0 0 31.298 33.856M50.704 3 23.563 31.097v32h54.283V32.36L50.704 3Z" stroke="#000" stroke-width="3" stroke-miterlimit="10" stroke-linecap="round" stroke-linejoin="round"/><path d="M56.748 36.855H43.263v26.25h13.485v-26.25Z" fill="#FFD29C" stroke="#000" stroke-width="3" stroke-miterlimit="10" stroke-linecap="round" stroke-linejoin="round"/><path fill-rule="evenodd" clip-rule="evenodd" d="M69.307 6.838h-6.352v9.41l6.352 6.866V6.838Z" fill="#fff" stroke="#000" stroke-width="3" stroke-miterlimit="10" stroke-linecap="round" stroke-linejoin="round"/><path d="M42.458 53.39c-4.116 0-7.458 3.353-7.458 7.5V72h14.907V60.89c.008-4.139-3.326-7.5-7.45-7.5ZM42.458 53.39c3.127 0 5.662-2.55 5.662-5.695 0-3.145-2.535-5.695-5.662-5.695-3.128 0-5.663 2.55-5.663 5.695 0 3.145 2.535 5.695 5.663 5.695Z" fill="#fff"/><path d="M42.458 53.39c-4.116 0-7.458 3.353-7.458 7.5V72h14.907V60.89c.008-4.139-3.326-7.5-7.45-7.5Zm0 0c3.127 0 5.662-2.55 5.662-5.695 0-3.145-2.535-5.695-5.662-5.695-3.128 0-5.663 2.55-5.663 5.695 0 3.145 2.535 5.695 5.663 5.695Z" stroke="#000" stroke-width="3" stroke-miterlimit="10" stroke-linecap="round" stroke-linejoin="round"/><path d="M57.55 53.39c-4.115 0-7.457 3.353-7.457 7.5V72H65V60.89c.008-4.139-3.334-7.5-7.45-7.5ZM57.55 53.39c3.128 0 5.663-2.55 5.663-5.695 0-3.145-2.535-5.695-5.663-5.695-3.127 0-5.662 2.55-5.662 5.695 0 3.145 2.535 5.695 5.662 5.695Z" fill="#fff"/><path d="M57.55 53.39c-4.115 0-7.457 3.353-7.457 7.5V72H65V60.89c.008-4.139-3.334-7.5-7.45-7.5Zm0 0c3.128 0 5.663-2.55 5.663-5.695 0-3.145-2.535-5.695-5.663-5.695-3.127 0-5.662 2.55-5.662 5.695 0 3.145 2.535 5.695 5.662 5.695Z" stroke="#000" stroke-width="3" stroke-miterlimit="10" stroke-linecap="round" stroke-linejoin="round"/></svg>
